packages/assets/static/images/icons/bold/horse--bold.svg

<svg width="24" height="24" viewBox="0 0 24 24" xmlns="http://www.w3.org/2000/svg">
<path d="M14.2494 9.75C14.2494 10.0467 14.1614 10.3367 13.9966 10.5834C13.8318 10.83 13.5975 11.0223 13.3234 11.1358C13.0493 11.2494 12.7477 11.2791 12.4568 11.2212C12.1658 11.1633 11.8985 11.0204 11.6887 10.8107C11.479 10.6009 11.3361 10.3336 11.2782 10.0426C11.2203 9.75166 11.2501 9.45006 11.3636 9.17597C11.4771 8.90189 11.6694 8.66762 11.916 8.5028C12.1627 8.33797 12.4527 8.25 12.7494 8.25C13.1472 8.25 13.5288 8.40804 13.8101 8.68934C14.0914 8.97064 14.2494 9.35218 14.2494 9.75ZM22.8744 12.1434C22.8307 14.7666 21.7734 17.271 19.924 19.1318C18.0745 20.9926 15.5766 22.0653 12.9538 22.125H12.7428C10.2589 22.1409 7.85695 21.2373 5.9994 19.5881C5.88541 19.4908 5.79203 19.3716 5.72475 19.2376C5.65747 19.1036 5.61764 18.9576 5.60761 18.808C5.59758 18.6584 5.61755 18.5083 5.66635 18.3666C5.71514 18.2248 5.79177 18.0942 5.89175 17.9825C5.99172 17.8708 6.11301 17.7802 6.2485 17.716C6.38398 17.6518 6.53093 17.6154 6.6807 17.6088C6.83048 17.6022 6.98006 17.6256 7.12065 17.6777C7.26124 17.7297 7.39002 17.8094 7.4994 17.9119C7.96099 18.324 8.47099 18.6785 9.01815 18.9675L11.0375 16.1906C9.12503 15.5344 7.10847 15.8784 5.93472 16.0772C5.31239 16.1857 4.67208 16.1162 4.08746 15.8769C3.50284 15.6376 2.99766 15.2381 2.63003 14.7244C2.61503 14.7047 2.60097 14.6841 2.58784 14.6634L1.29597 12.6009C1.13968 12.3514 1.08748 12.0504 1.15059 11.7628C1.21369 11.4752 1.38705 11.2237 1.63347 11.0625L10.8744 5.01656V3C10.8744 2.70163 10.9929 2.41548 11.2039 2.2045C11.4149 1.99353 11.701 1.875 11.9994 1.875H12.7494C14.0912 1.87487 15.4196 2.14143 16.6575 2.65921C17.8954 3.17698 19.018 3.93564 19.9601 4.89108C20.9021 5.84651 21.6449 6.97968 22.1452 8.2247C22.6456 9.46973 22.8934 10.8018 22.8744 12.1434ZM20.6244 12.1125C20.6537 10.0694 19.8877 8.09486 18.4883 6.606C17.0888 5.11714 15.1654 4.23053 13.1244 4.13344V5.625C13.1238 5.81119 13.0769 5.9943 12.9881 6.15793C12.8992 6.32155 12.7711 6.46056 12.6153 6.5625L3.78784 12.3384L4.47315 13.4334C4.59795 13.5968 4.76512 13.7228 4.95652 13.7979C5.14791 13.8729 5.35621 13.8941 5.55878 13.8591C7.08034 13.6012 10.19 13.0753 13.025 14.6091C13.8688 14.5399 14.6558 14.1562 15.2298 13.534C15.8039 12.9118 16.1232 12.0966 16.1244 11.25C16.1244 10.9516 16.2429 10.6655 16.4539 10.4545C16.6649 10.2435 16.951 10.125 17.2494 10.125C17.5478 10.125 17.8339 10.2435 18.0449 10.4545C18.2559 10.6655 18.3744 10.9516 18.3744 11.25C18.3725 12.638 17.8582 13.9765 16.9302 15.0087C16.0021 16.0409 14.7257 16.6941 13.3457 16.8431L11.241 19.7372C11.7911 19.8393 12.3503 19.8848 12.9097 19.8731C14.9486 19.8251 16.8899 18.9906 18.3277 17.5442C19.7655 16.0978 20.5884 14.1516 20.6244 12.1125Z"/>
</svg>

<svg viewBox="0 0 24 24" xmlns="http://www.w3.org/2000/svg" aria-hidden="true" fill="currentColor"><path d="M14.25 9.75a1.5 1.5 0 1 1-3.001 0 1.5 1.5 0 0 1 3 0m8.624 2.393a10.153 10.153 0 0 1-9.92 9.982h-.211a10.06 10.06 0 0 1-6.744-2.537 1.124 1.124 0 1 1 1.5-1.676c.462.412.972.767 1.52 1.056l2.018-2.777c-1.912-.657-3.929-.313-5.102-.114a3.36 3.36 0 0 1-3.347-1.414l-1.292-2.062a1.125 1.125 0 0 1 .337-1.539l9.241-6.045V3A1.125 1.125 0 0 1 12 1.875h.75a10.125 10.125 0 0 1 10.125 10.268m-2.25-.03a7.875 7.875 0 0 0-7.5-7.98v1.492a1.13 1.13 0 0 1-.509.938l-8.827 5.775.685 1.095a1.13 1.13 0 0 0 1.086.426c1.521-.258 4.631-.784 7.466.75a3.375 3.375 0 0 0 3.1-3.359 1.125 1.125 0 1 1 2.25 0 5.634 5.634 0 0 1-5.03 5.593l-2.104 2.894a7.902 7.902 0 0 0 9.383-7.625"/></svg>
